X:1
T:Title
%%score { ( 1 4 ) | ( 2 3 ) }
L:1/8
Q:1/4=100
M:6/8
K:Bb
V:1 treble nm="Grand Piano"
V:4 treble 
V:2 bass 
V:3 bass 
V:1
 [DF]2 [DF] [EG]2 [_D=E] | [DF]3 .[DB]3 | [Fd]2 [^Fc] [GB]2 [EG] | [EG]3 .[DF]3 | F2 F F2 F | %5
w: W.~A.~Ogden * * *|||||
 [DF]3 [DB]2 [Gd] | [=Ec]2 [EG] [Ec]2 [CEB] | [CFA]3 .[EG]3 | [DF]2 [DF] [EG]2 [_D=E] | %9
w: ||||
 [DF]3 .[DB]3 | [Fd]2 [Fd] [Ge]2 [Fd] | d3 .c3 | B2 B [FA]2 [EG] | [DF]3 [FB]2 [Gc] | [Fd]3 [Ec]3 | %15
w: ||||||
 [DB]6 |[M:4/4] z4 F2[K:bass] z2 | z4 =E2 z2 | z4 E2[K:bass] z2 | z4 [DF]2[K:bass] z2 | %20
w: |||||
 z4 ^F2[K:bass] z2 |[M:3/4][K:treble] z2 z2 G2[K:bass] |[M:1/4] D,>E, |[M:4/4][K:treble] z4 A2 z2 | %24
w: ||||
[M:7/8] [DFB]>FF>E D3[Q:1/4=99][Q:1/4=97][Q:1/4=96][Q:1/4=94][Q:1/4=93][Q:1/4=91][Q:1/4=90][Q:1/4=88][Q:1/4=87][Q:1/4=85][Q:1/4=84][Q:1/4=82][Q:1/4=81][Q:1/4=79][Q:1/4=78][Q:1/4=76] |] %25
w: |
V:2
 [B,,B,]2 [B,,B,] [B,,B,]2 [B,,B,] | [B,,B,]3 .[B,,B,]3 | [B,,B,]2 [D,A,] [E,G,]2 [E,B,] | %3
 [B,,B,]3 .[B,,B,]3 | [F,A,C]2 [F,B,D] [F,CE]2 [F,A,C] | [B,,B,]3 [B,,B,]2 [B,,B,] | %6
 [C,G,]2 [C,C] [C,G,]2 C, | z3 .A,3 | [B,,B,]2 [B,,B,] [B,,B,]2 [B,,B,] | [B,,B,]3 .[B,,B,]3 | %10
 [B,,B,]2 [B,,B,] [B,,B,]2 [B,,B,] | [F,A,F]3 .[F,A,E]3 | [G,B,D]2 [G,B,D] [E,B,]2 [E,B,] | %13
 [B,,B,]3 [D,B,]2 [E,B,] | [F,B,]3 [F,A,]3 | [B,,B,]6 |[M:4/4] B,>[B,D] [B,D]>[B,D] [B,D]2 z2 | %17
 [B,C]>[B,C] [B,C]>[B,C] [C,B,C]2 z2 | [A,C]>[A,C] [A,C]>[A,C] [A,C]2 z2 | B,4 z4 | [A,D]2 z2 z4 | %21
[M:3/4] [B,E]>[B,E] [B,E]>[B,E] [B,E]2 |[M:1/4] z2 | %23
[M:4/4] [A,C]>[K:treble][CF] [CF]>[CF] [CF]2[K:bass] D,>C, | %24
[M:7/8] z z/ [B,D]<[B,D][F,C]/ [F,B,]3 |] %25
V:3
 x6 | x6 | x6 | x6 | x6 | x6 | x6 | F,6 | x6 | x6 | x6 | x6 | x6 | x6 | x6 | x6 |[M:4/4] B,,6 z2 | %17
 G,4 z4 | F,6 z2 | z z/ [F,D]/ [F,D]>[F,D] [B,,B,]2 z2 | %20
 D,->[D,-A,D] [D,-A,D]>[D,-A,D] [D,CD]2 z2 |[M:3/4] E,6 |[M:1/4] x2 | %23
[M:4/4] F,6[K:treble][K:bass] z2 |[M:7/8] B,,-B,,-B,,- B,,- B,,3 |] %25
V:4
 x6 | x6 | x6 | x6 | x6 | x6 | x6 | x6 | x6 | x6 | x6 | x6 | x6 | x6 | x6 | x6 | %16
[M:4/4] [DF]>F F>F z z/[K:bass] D,/ F,>B, | =E>E E>E z z/ D,/ E,>G, | %18
 E>E E>E z z/[K:bass] E,/ D,>F, | D>F F>F z z/[K:bass] A,,/ B,,>C, | %20
 ^F>F F>F z z/[K:bass] =B,,/ C,>D, |[M:3/4][K:treble] G>G G>G z z/[K:bass] C,/ |[M:1/4] x2 | %23
[M:4/4][K:treble] F>A A>A z z/ E,/ [CFA]2 |[M:7/8] x7 |] %25

